X:73
T:?
M:3/4
L:1/8
S:Kevin Keegan
R:waltz
K:G
|:B6|B2 c2 ^c2|d6|d2 ^cd ef|\
g6|g2 f2 g2|Ac eA ce|A2 B3 c|\
ec Ge cG|e2 d3 B|G6|G2 F2 E2|\
D4 e2|d2 A3 ^A|B6|d^c ed cd|
B6|B2 c2 ^c2|d6|d2 ^cd ef|\
g6|g2 f2 g2|b6|a6|\
g6|g2 d2 BA|G6|G2 F2 E2|\
D4 c2|B4 A2|G6|G6:|


